Adwaita++-Dark/actions/16/tools-check-spelling.svg

<svg height="16" width="16" xmlns="http://www.w3.org/2000/svg">
  <g fill="#e6ddff">
    <path d="m3 11.293-2.35352 2.353a.50029.50029 0 1 0 .70702.708l1.6465-1.647 2 2 2-2 2 2 2-2 2 2 2.354-2.353a.50063.50063 0 1 0 -.708-.708l-1.646 1.647-2-2-2 2-2-2-2 2z"/>
    <path d="m8 2v9h3c1.662 0 3-1.338 3-3s-1.338-3-3-3h-1v-3zm2 5h1c.554 0 1 .446 1 1s-.446 1-1 1h-1z"/>
    <path d="m2 3v2h3v1h-1c-1.662 0-3 1.115-3 2.5s1.338 2.5 3 2.5h3v-6c0-1.108-.892-2-2-2zm1.5 5h1.5v1h-1.5c-.277 0-.5-.223-.5-.5s.223-.5.5-.5z"/>
  </g>
</svg>

<svg xmlns="http://www.w3.org/2000/svg" width="16" height="16" version="1.1">
 <path style="fill:#E6DDFF" d="M 3,11.293 0.64648,13.646 A 0.50029,0.50029 0 1 0 1.3535,14.354 L 3,12.707 5,14.707 7,12.707 9,14.707 11,12.707 13,14.707 15.354,12.354 A 0.50063,0.50063 0 1 0 14.646,11.646 L 13,13.293 11,11.293 9,13.293 7,11.293 5,13.293 Z"/>
 <path style="fill:#E6DDFF" d="M 8,2 V 11 H 11 C 12.662,11 14,9.662 14,8 14,6.338 12.662,5 11,5 H 10 V 2 Z M 10,7 H 11 C 11.554,7 12,7.446 12,8 12,8.554 11.554,9 11,9 H 10 Z"/>
 <path style="fill:#E6DDFF" d="M 2,3 V 5 H 5 V 6 H 4 C 2.338,6 1,7.115 1,8.5 1,9.885 2.338,11 4,11 H 7 V 5 C 7,3.892 6.108,3 5,3 Z M 3.5,8 H 5 V 9 H 3.5 C 3.223,9 3,8.777 3,8.5 3,8.223 3.223,8 3.5,8 Z"/>
</svg>
